X: 1
T:Bella Union -- Reel
M:C|
L:1/8
C:R. TYSON
R:reel
B:Ryan's Mammoth Collection
N:242
Z:Contributed by Ray Davies,  ray:davies99.freeserve.co.uk
K:E
u(B"0"A)|\
Gz"4"Az kF2"4"(AF) | GBeg fece | GzAz kF2(AF) | cedf ecBA |
GzAz kF2(AF) | GBeg fece | GzAz kF2(AF) | cedf e2  :|
|:u(d"4"e)|\
.f(BAB) .g(BAB) | .a.B.g.B .f(BAB) | .f(BAB) .g(BAB) |\
.a.f.d.f .e2(d"4"e) |
.f(BAB) .g(BAB) | .a.B.g.B .f(BAB) | E2(GB) e2(eg) |\
{g}fedf e2  :|
